X:1
T:Cruelle Tendresse
C:Louis Peguri
R:waltz musette
D:Les Primitifs du Futur - World Musette (1999)
N:transcription and provisional chords by MB, 090221
M:3/4
L:1/8
Z: Contributed 2009-02-21 15:56:23 by Moshe Braner mbraner@hotmail.com
K:D
P:ABABB
z z4|"D"FGA2B2-|"A7"B2 EFGA|"D"F6-|F6|\
"Bm"DE F2 G2-|"A7"G2 CDEF|"D"D6-|D6|
"D7"DC=C4-|=CD^CDEF|"G"A_A G4-|G6|\
"E7"F=F E4-|E E^DEFG|"A7"B_B A4-|A6|
"D"FGA2B2-|"A7"B2 EFGA|"D"F6-|F6|\
"F#m"ABc2d2-|"E7"d2 ^GABc|"A"A6-|A6|
"B7"A^GB4-|"E"B A^GBAG|"A"F=FE4-|E6|\
"E7"CDE4-|E ^DFEDE|"A7"A6-|A ||
A,B,CB,A,|\
"D"F6-|F "A7"CB,CB,A,|"D"F6-|F DCDED|\
BAFD E2-|"A"E CDB,CA,|"G"B,6-|"A"B, A,B,CB,A,|
E6-|E B,CDCB,|"A7"G6-|G ^DEFGE|\
cBGEF2-|F EDCB,A,|"D"A6-|A A,B,CB,A,|
"D"F6-|F DEFED|"D7"=c6-|=c ^GABcd|\
ed=cAF2-|F EGFEG|"G"B6-|B B^ABcB|
d6-|d "Gm"_BAB=cB|"D"d6-|d cdedB|\
"E7"d6|"A7"e6|"D"d6|z||



